logos/quay.svg

<?xml version="1.0" encoding="UTF-8" standalone="no"?>
<svg width="256px" height="236px" viewBox="0 0 256 236" version="1.1" xmlns="http://www.w3.org/2000/svg" xmlns:xlink="http://www.w3.org/1999/xlink" preserveAspectRatio="xMidYMid">
	<g>
		<path d="M200.133973,0 L255.689387,117.51424 L200.133973,235.031893 L152.838827,235.031893 L208.39424,117.51424 L152.838827,0 L200.133973,0 Z M110.080447,99.8357161 L130.135717,61.7444141 L127.8464,52.8759467 L102.847147,0 L55.552,0 L104.198827,102.898347 L110.080447,99.8357161 Z M127.846401,174.26862 L110.513029,135.234683 L104.198827,132.133547 L55.552,235.031893 L102.847147,235.031893 L127.8464,182.152533 L127.846401,174.26862 Z" fill="#40B4E5"></path>
		<path d="M152.84224,235.031893 L97.2868267,117.51424 L152.84224,0 L200.137387,0 L144.581973,117.51424 L200.137387,235.031893 L152.84224,235.031893 Z M55.5554133,235.031893 L-1.42108547e-14,117.51424 L55.5554133,0 L102.85056,0 L47.2951467,117.51424 L102.85056,235.031893 L55.5554133,235.031893 Z" fill="#003764"></path>
	</g>
</svg>

<svg preserveAspectRatio="xMidYMid" viewBox="0 0 256 236" xmlns="http://www.w3.org/2000/svg">
  <path fill="#40B4E5" d="m200.134 0 55.555 117.514-55.555 117.518h-47.295l55.555-117.518L152.84 0h47.295ZM110.08 99.836l20.056-38.092-2.29-8.868L102.847 0H55.552l48.647 102.898 5.881-3.062Zm17.766 74.433-17.333-39.034-6.314-3.101-48.647 102.898h47.295l25-52.88v-7.883Z"/>
  <path fill="#003764" d="M152.842 235.032 97.287 117.514 152.842 0h47.295l-55.555 117.514 55.555 117.518h-47.295Zm-97.287 0L0 117.514 55.555 0h47.296L47.295 117.514l55.556 117.518H55.555Z"/>
</svg>
